icons/mobile/16/svg/shield-checkmark-fill-16.svg

<!-- This Source Code Form is subject to the terms of the Mozilla Public
   - License, v. 2.0. If a copy of the MPL was not distributed with this
   - file, You can obtain one at http://mozilla.org/MPL/2.0/. -->
<svg width="16" height="16" viewBox="0 0 16 16" fill="none" xmlns="http://www.w3.org/2000/svg">
    <path fill-rule="evenodd" clip-rule="evenodd" d="M7.01501 13.743C7.31901 13.914 7.66001 14 8.00001 14C8.34101 14 8.68301 13.913 8.98701 13.741C10.199 13.056 11.315 11.999 12.129 10.764C12.551 10.123 12.85 9.347 13.015 8.457L13.48 5.954C13.599 5.313 13.29 4.668 12.716 4.359L8.66501 2.179C8.22001 1.94 7.68501 1.94 7.24001 2.181L3.28001 4.324C2.70901 4.633 2.40101 5.275 2.51901 5.915L2.98601 8.45C3.15101 9.344 3.44901 10.124 3.87401 10.769C4.68801 12.002 5.80301 13.057 7.01501 13.743ZM7.385 9.854C7.479 9.947 7.606 10 7.739 10C7.872 10 7.999 9.947 8.092 9.854L10.75 7.196L10.043 6.489L7.739 8.793L6.457 7.511L5.75 8.218L7.385 9.854Z" fill="black" />
</svg>

<!-- This Source Code Form is subject to the terms of the Mozilla Public
   - License, v. 2.0. If a copy of the MPL was not distributed with this
   - file, You can obtain one at http://mozilla.org/MPL/2.0/. -->
<svg xmlns="http://www.w3.org/2000/svg" width="16" height="16" fill="none" viewBox="0 0 16 16">
    <path fill="#000" fill-rule="evenodd" d="M7.015 13.743a2.01 2.01 0 0 0 1.972-.002c1.212-.685 2.328-1.742 3.142-2.977.422-.641.721-1.417.886-2.307l.465-2.503a1.5 1.5 0 0 0-.764-1.595l-4.051-2.18a1.5 1.5 0 0 0-1.425.002L3.28 4.324a1.5 1.5 0 0 0-.761 1.591l.467 2.535c.165.894.463 1.674.888 2.319.814 1.233 1.929 2.288 3.141 2.974m.37-3.889a.504.504 0 0 0 .707 0l2.658-2.658-.707-.707-2.304 2.304-1.282-1.282-.707.707z" clip-rule="evenodd" />
</svg>
